X:1
T: Miss Margaret Graham (of Gartmore's) Strathspey
C:R. Mackintosh
R:Strathspey
Q: 128
K:D
M:4/4
L:1/16
|:A2|FA3 Ad3 B3A AA3|d3A BAGF GE3 EG3|FEFG Ad3 B3A Ad3|c3d fedc d4 D2A2|
FA3 Ad3 B3A AA3|d3A BAGF GE3 EG3|FEFG Ad3 B3A Ad3|c3d fedc d4 D2g2|
fd3 ad3 c3e ac3|dB3 fB3 A3c fA3|BG3 eG3 F3A df3|eb3 ad3 c4 A2g2|
fd3 ad3 c3e ac3|dB3 fB3 A3c fA3|BG3 eG3 F3A df3|eb3 ac3 d4 D2:|
